src/images/pages/trade-explanation/pt/touch.svg

<?xml version="1.0" encoding="UTF-8"?>
<svg width="299px" height="197px" viewBox="0 0 299 197" version="1.1" xmlns="http://www.w3.org/2000/svg" xmlns:xlink="http://www.w3.org/1999/xlink">
    <!-- Generator: Sketch 52.6 (67491) - http://www.bohemiancoding.com/sketch -->
    <title>touch</title>
    <desc>Created with Sketch.</desc>
    <g id="Page-1" stroke="none" stroke-width="1" fill="none" fill-rule="evenodd">
        <g id="touch">
            <g id="Group">
                <polygon id="Path" fill="#F1F2F2" points="0 0 299 0 299 197 0 197"></polygon>
                <path d="M1.98671096,1.9798995 L1.98671096,195.020101 L297.013289,195.020101 L297.013289,1.9798995 L1.98671096,1.9798995 Z M299,0 L299,197 L0,197 L0,0 L299,0 Z" id="Path" fill="#C2C2C2" fill-rule="nonzero"></path>
                <g id="Group-2" transform="translate(2.000000, 33.000000)">
                    <path d="M2.887,22.4456836 L2.887,21.2388448 L292.54325,21.2388448 L292.54325,22.4456836 L2.887,22.4456836 Z M2.887,62.9796458 L2.887,61.772807 L292.54325,61.772807 L292.54325,62.9796458 L2.887,62.9796458 Z M2.887,103.513608 L2.887,102.30677 L292.54325,102.30677 L292.54325,103.513608 L2.887,103.513608 Z M2.887,144.010211 L2.887,142.803373 L292.54325,142.803373 L292.54325,144.010211 L2.887,144.010211 Z M37.2665806,1.59396226 L38.4734194,1.59396226 L38.4734194,161.264151 L37.2665806,161.264151 L37.2665806,1.59396226 Z M73.9314556,1.59396226 L75.1382944,1.59396226 L75.1382944,161.264151 L73.9314556,161.264151 L73.9314556,1.59396226 Z M110.558956,1.59396226 L111.765794,1.59396226 L111.765794,161.264151 L110.558956,161.264151 L110.558956,1.59396226 Z M147.223831,1.59396226 L148.430669,1.59396226 L148.430669,161.264151 L147.223831,161.264151 L147.223831,1.59396226 Z M183.851331,1.59396226 L185.058169,1.59396226 L185.058169,161.264151 L183.851331,161.264151 L183.851331,1.59396226 Z M220.478831,1.59396226 L221.685669,1.59396226 L221.685669,161.264151 L220.478831,161.264151 L220.478831,1.59396226 Z M2.887,83.2279477 L2.887,82.0211089 L292.54325,82.0211089 L292.54325,83.2279477 L2.887,83.2279477 Z" id="Shape" fill="#DFDEDE" fill-rule="nonzero"></path>
                    <polygon id="Path" fill="#2A3052" fill-rule="nonzero" points="2.887 43.7313439 2.887 42.5245051 292.54325 42.5245051 292.54325 43.7313439"></polygon>
                    <polygon id="Path" fill="#DFDEDE" fill-rule="nonzero" points="2.887 124.76191 2.887 123.555072 292.54325 123.555072 292.54325 124.76191"></polygon>
                    <polygon id="Path" fill="#2A3052" fill-rule="nonzero" points="257.143706 2.59396226 258.350544 2.59396226 258.350544 162.264151 257.143706 162.264151"></polygon>
                    <polygon id="Path" fill="#C2C2C2" fill-rule="nonzero" points="0.794 2.60551619 0.794 0.191464945 294.63625 0.191464945 294.63625 2.60551619"></polygon>
                    <path d="M39.0869303,105.250634 C38.3466232,105.922726 37.2016474,105.867426 36.5295554,105.127119 C35.8574633,104.386812 35.9127626,103.241836 36.6530697,102.569744 L73.3179447,69.283329 C74.0311337,68.6358563 75.1264314,68.6601974 75.8101526,69.338714 L100.514722,93.8552281 L130.675074,60.5178463 C131.351131,59.7705752 132.50724,59.7191333 133.246994,60.4034068 L177.337008,101.186717 L219.609617,42.0748031 C220.19124,41.2614907 221.322059,41.0736691 222.135371,41.655292 C222.948684,42.2369149 223.136505,43.3677334 222.554883,44.1810459 L179.087758,104.96331 C178.45376,105.849861 177.185865,105.979337 176.385756,105.239235 L132.132071,64.3045294 L101.927801,97.6904556 C101.234985,98.4562508 100.042975,98.4883312 99.3099724,97.7609087 L74.4794148,73.1193652 L39.0869303,105.250634 Z" id="Path" fill="#2A3052" fill-rule="nonzero"></path>
                    <path d="M185.987125,114.445283 L151.0415,114.445283 L145.6595,106.263774 L140.2775,114.445283 L105.331875,114.445283 C102.715625,114.445283 100.622625,116.574717 100.622625,119.22717 L100.622625,143.921132 C100.622625,146.573585 102.753,148.703019 105.331875,148.703019 L186.0245,148.703019 C188.64075,148.703019 190.73375,146.573585 190.73375,143.921132 L190.73375,119.22717 C190.73375,116.574717 188.603375,114.445283 185.987125,114.445283 Z" id="Path" fill="#E88024"></path>
                    <g id="Group" opacity="0.6" transform="translate(212.037500, 34.509434)" fill="#FFFFFF">
                        <ellipse id="Oval" cx="9.04475" cy="8.6184906" rx="8.110375" ry="8.44301887"></ellipse>
                    </g>
                    <path d="M221.08225,52.777969 C215.925296,52.777969 211.764849,48.4468836 211.764849,43.1279245 C211.764849,37.8089654 215.925296,33.47788 221.08225,33.47788 C226.239204,33.47788 230.399651,37.8089654 230.399651,43.1279245 C230.399651,48.4468836 226.239204,52.777969 221.08225,52.777969 Z M221.08225,50.3639177 C224.883769,50.3639177 227.985599,47.1348665 227.985599,43.1279245 C227.985599,39.1209825 224.883769,35.8919313 221.08225,35.8919313 C217.280731,35.8919313 214.178901,39.1209825 214.178901,43.1279245 C214.178901,47.1348665 217.280731,50.3639177 221.08225,50.3639177 Z" id="Oval" fill="#E88024" fill-rule="nonzero"></path>
                    <g id="Group" opacity="0.6" transform="translate(28.900000, 95.018868)" fill="#FFFFFF">
                        <ellipse id="Oval" cx="8.97" cy="8.89132075" rx="8.110375" ry="8.44301887"></ellipse>
                    </g>
                    <path d="M37.87,113.560233 C32.7130457,113.560233 28.5525994,109.229148 28.5525994,103.910189 C28.5525994,98.5912299 32.7130457,94.2601445 37.87,94.2601445 C43.0269543,94.2601445 47.1874006,98.5912299 47.1874006,103.910189 C47.1874006,109.229148 43.0269543,113.560233 37.87,113.560233 Z M37.87,111.146182 C41.6715185,111.146182 44.7733494,107.917131 44.7733494,103.910189 C44.7733494,99.903247 41.6715185,96.6741958 37.87,96.6741958 C34.0684815,96.6741958 30.9666506,99.903247 30.9666506,103.910189 C30.9666506,107.917131 34.0684815,111.146182 37.87,111.146182 Z" id="Oval" fill="#E88024" fill-rule="nonzero"></path>
                </g>
            </g>
            <path d="M24.198,12.851 L20.776,12.851 L20.776,22.979 L18.373,22.979 L18.373,12.851 L15,12.851 L15,11 L24.198,11 L24.198,12.85 L24.198,12.851 Z M24.314,18.446 C24.314,17.118 24.684,16.031 25.424,15.183 C26.164,14.336 27.19,13.913 28.501,13.913 C29.818,13.913 30.849,14.335 31.595,15.179 C32.341,16.024 32.714,17.113 32.714,18.446 L32.714,18.618 C32.714,19.957 32.342,21.047 31.599,21.888 C30.856,22.731 29.829,23.152 28.518,23.152 C27.201,23.152 26.172,22.731 25.428,21.889 C24.685,21.047 24.314,19.957 24.314,18.619 L24.314,18.446 Z M26.708,18.618 C26.708,19.43 26.85,20.081 27.136,20.572 C27.421,21.063 27.882,21.309 28.518,21.309 C29.138,21.309 29.592,21.062 29.88,20.569 C30.167,20.075 30.311,19.425 30.311,18.619 L30.311,18.446 C30.311,17.656 30.166,17.011 29.875,16.512 C29.585,16.012 29.127,15.763 28.501,15.763 C27.881,15.763 27.428,16.014 27.14,16.516 C26.852,17.018 26.708,17.661 26.708,18.446 L26.708,18.618 Z M37.914,21.308 C38.331,21.308 38.662,21.184 38.909,20.934 C39.156,20.684 39.279,20.352 39.279,19.934 L41.468,19.934 L41.484,19.984 C41.506,20.884 41.172,21.636 40.481,22.243 C39.79,22.849 38.934,23.152 37.914,23.152 C36.597,23.152 35.58,22.731 34.861,21.889 C34.143,21.047 33.783,19.97 33.783,18.659 L33.783,18.413 C33.783,17.107 34.141,16.031 34.857,15.183 C35.573,14.336 36.587,13.913 37.897,13.913 C38.983,13.913 39.858,14.225 40.522,14.85 C41.186,15.475 41.506,16.298 41.484,17.318 L41.468,17.368 L39.279,17.368 C39.279,16.907 39.157,16.524 38.913,16.22 C38.669,15.916 38.331,15.763 37.897,15.763 C37.277,15.763 36.837,16.012 36.577,16.508 C36.317,17.004 36.186,17.639 36.186,18.413 L36.186,18.659 C36.186,19.449 36.316,20.089 36.576,20.576 C36.837,21.065 37.283,21.309 37.914,21.309 L37.914,21.308 Z M48.132,22.978 C48.0424079,22.769973 47.9669043,22.5561574 47.906,22.338 C47.8424883,22.1112808 47.7970131,21.8798923 47.77,21.646 C47.5282019,22.0738891 47.1936905,22.4422274 46.791,22.724 C46.385,23.009 45.903,23.152 45.343,23.152 C44.411,23.152 43.693,22.912 43.188,22.432 C42.683,21.952 42.431,21.298 42.431,20.47 C42.431,19.597 42.767,18.921 43.438,18.441 C44.11,17.961 45.091,17.721 46.38,17.721 L47.73,17.721 L47.73,17.014 C47.73,16.586 47.617,16.254 47.392,16.018 C47.167,15.783 46.832,15.665 46.388,15.665 C45.998,15.665 45.698,15.759 45.488,15.948 C45.276,16.138 45.17,16.397 45.17,16.726 L42.858,16.726 L42.842,16.676 C42.804,15.926 43.132,15.276 43.825,14.731 C44.519,14.185 45.425,13.912 46.545,13.912 C47.614,13.912 48.479,14.181 49.14,14.718 C49.801,15.256 50.132,16.027 50.132,17.03 L50.132,20.708 C50.132,21.125 50.163,21.518 50.226,21.885 C50.289,22.252 50.389,22.617 50.526,22.979 L48.132,22.979 L48.132,22.978 Z M45.936,21.375 C46.352,21.375 46.726,21.27 47.054,21.062 C47.384,20.853 47.608,20.612 47.729,20.338 L47.729,19.079 L46.38,19.079 C45.87,19.079 45.485,19.205 45.225,19.458 C44.965,19.71 44.834,20.02 44.834,20.388 C44.834,20.688 44.931,20.928 45.126,21.108 C45.321,21.285 45.591,21.375 45.936,21.375 Z" id="Shape" fill="#000000" fill-rule="nonzero"></path>
            <path d="M271.666,119.808 L271.666,120.83 L266.766,120.83 L266.766,124.3 L270.94,124.3 L270.94,125.352 L266.765,125.352 L266.765,129.795 L265.325,129.795 L265.325,119.808 L271.666,119.808 Z M272.928,122.39 L274.252,122.39 L274.252,129.677 L272.928,129.677 L272.928,122.39 Z M272.946,119.08 L272.946,120.395 L274.295,120.395 L274.295,119.08 L272.946,119.08 Z M276.44,122.458 L277.6,122.458 C277.605,122.69 277.637,122.996 277.697,123.378 C278.848,122.011 281.183,121.764 281.984,123.671 C282.767,122.458 283.541,122.136 284.803,122.345 C286.399,122.611 286.637,124.413 286.714,125.095 C286.681,127.047 286.702,128.764 286.714,129.795 L285.371,129.795 L285.371,125.095 C285.331,124.401 285.097,123.377 283.918,123.377 C282.738,123.377 282.21,124.458 282.21,125.095 L282.21,129.795 L280.875,129.795 L280.875,125.095 C280.875,124.275 280.372,123.212 279.186,123.377 C278.001,123.542 277.902,124.074 277.696,124.353 C277.711,126.011 277.711,127.825 277.696,129.795 L276.439,129.795 L276.439,122.458 L276.44,122.458 Z" id="Shape" fill="#2A3052" fill-rule="nonzero"></path>
            <path d="M27.93,156.249 L28.044,157.43 C28.5122997,156.612117 29.3897256,156.115113 30.332,156.134 C31.171,156.134 31.819,156.363 32.276,156.897 C32.734,157.392 32.963,158.155 32.963,159.184 L32.963,164.141 L31.552,164.141 L31.552,159.222 C31.552,158.536 31.399,158.041 31.132,157.735 C30.866,157.43 30.446,157.316 29.912,157.316 C29.493,157.316 29.15,157.43 28.845,157.621 C28.54,157.811 28.273,158.079 28.082,158.421 L28.082,164.141 L26.672,164.141 L26.672,156.287 L27.93,156.249 Z M22.79,153.609 L24.223,153.609 L24.223,164.203 L22.79,164.203 L22.79,153.609 Z M35.204,156.151 L36.637,156.151 L36.637,164.141 L35.204,164.141 L35.204,156.151 Z M46.856,156.227 L48.266,156.227 L48.266,163.989 L46.856,163.989 L46.856,156.227 Z M46.875,152.703 L46.875,154.103 L48.312,154.103 L48.312,152.703 L46.875,152.703 Z M43.496,158.986 C43.998,158.971 44.468,158.986 44.771,158.986 C44.771,156.743 42.994,156.151 41.564,156.151 C40.135,156.151 38.357,157.447 38.357,160.229 C38.357,163.01 39.917,164.363 41.853,164.294 C43.789,164.224 44.771,162.752 44.771,161.668 C44.3460944,161.680669 43.9209056,161.680669 43.496,161.668 C43.496,162.692 42.576,163.229 41.853,163.229 C40.125,163.229 39.733,161.552 39.733,160.219 C39.733,158.886 40.175,157.239 41.719,157.239 C43.029,157.239 43.496,158.255 43.496,158.986 Z M53.499,156.137 C54.39,156.088 55.519,156.397 56.149,157.038 C56.848,157.746 57.347,158.628 57.347,160.082 C57.347,161.37 57.09,162.301 56.48,163.053 C55.792,163.903 54.72,164.293 53.85,164.293 C52.948,164.293 51.97,164.151 51.147,163.391 C50.474,162.769 49.851,161.703 49.913,160.215 C49.982,158.571 50.511,157.633 51.147,157.038 C51.79,156.438 52.544,156.188 53.499,156.137 Z M53.819,157.213 C52.797,157.213 51.561,157.879 51.561,159.948 C51.561,162.016 52.324,163.246 53.694,163.246 C55.064,163.246 55.964,161.855 55.825,159.948 C55.686,158.04 54.842,157.213 53.82,157.213 L53.819,157.213 Z M35.28,155.002 L36.317,155.002 L38.306,153.122 L36.619,153.122 L35.28,155.002 Z" id="Shape" fill="#2A3052" fill-rule="nonzero"></path>
            <path d="M35.452,59.318 L36.582,59.318 L35.231,68.23 L34.135,68.23 L35.452,59.318 Z M37.358,62.061 L38.476,62.061 L39.369,66.873 L41.641,62.061 L42.76,62.061 L39.548,68.23 L38.758,68.23 L37.358,62.061 Z M46.67,61.978 C48.175,62.212 49.01,63.638 48.444,65.811 C47.879,67.983 45.964,68.641 44.526,68.233 C43.087,67.825 42.729,65.956 43.239,64.338 C43.749,62.72 45.167,61.745 46.671,61.978 L46.67,61.978 Z M46.488,62.865 C45.361,62.598 44.623,63.655 44.349,64.415 C44.075,65.177 43.851,67.196 45.049,67.438 C46.246,67.681 47.035,66.791 47.369,65.661 C47.701,64.532 47.616,63.133 46.489,62.865 L46.488,62.865 Z M26.086,68.208 L30.328,59.913 L31.312,59.913 L32.972,68.208 L31.82,68.208 L31.437,66.05 L28.304,66.05 L27.234,68.208 L26.087,68.208 L26.086,68.208 Z M28.799,65.148 L31.254,65.148 L30.588,61.491 L28.799,65.149 L28.799,65.148 Z" id="Shape" fill="#6D6E71" fill-rule="nonzero"></path>
            <path d="M177.61,165.885 L175.112,165.885 L175.112,157.618 L177.611,157.618 L177.61,165.885 Z M177.61,170.235 L175.112,170.235 L175.112,168.014 L177.611,168.014 L177.61,170.235 Z" id="Shape" fill="#FFFFFF" fill-rule="nonzero"></path>
            <path d="M142.888,160.394 L144.905,160.394 L145.007,161.864 C145.833,160.631 146.905,160.084 148.223,160.22 C148.985,160.299 150.594,160.549 151.073,162.715 C151.25,163.509 151.213,164.851 151.199,166.675 C151.193698,167.900994 151.193698,169.127006 151.199,170.353 L148.985,170.353 L148.985,164.115 C148.985,163.381 148.78,162.562 148.165,162.252 C147.32,161.826 145.728,162.005 145.089,163.079 L145.089,170.353 L142.888,170.353 L142.888,160.394 Z M125.118,165.055 L125.118,163.382 L130.181,163.382 C130.238,166.299 130.238,168 130.181,168.484 C129.754,169.761 124.697,172.083 121.433,169.138 C120.46,168.26 120.002,167.288 119.752,165.815 C119.741,164.312 119.714,162.901 119.724,161.567 C119.971,159.932 120.519,159.003 120.96,158.476 C122.565,156.556 125.123,156.144 127.372,156.921 C129.622,157.699 129.913,159.314 130.095,160.894 C129.575,160.894 129.299,160.872 127.893,160.894 C128.036,160.005 127.227,158.286 125.116,158.381 C123.006,158.476 122.01,160.209 122.01,161.654 C122.01,163.098 121.934,162.614 122.01,165.484 C122.106,168.78 126.057,169.664 127.893,167.904 L127.96,165.097 L125.118,165.055 Z M135.033,163.215 C134.354,163.21 133.642,163.21 132.897,163.215 C132.897,162.143 133.664,160.2 136.732,160.2 C139.801,160.2 140.537,162.308 140.62,162.761 C140.703,163.215 140.407,169.579 141.049,170.302 L138.769,170.305 C138.581,169.66 138.487,169.185 138.487,168.876 C138.131,169.31 137.519,170.104 136.579,170.395 C135.639,170.686 133.505,170.843 132.63,168.795 C132.054,167.444 132.422,165.925 133.505,165.23 C135.294,164.08 137.753,164.464 138.487,164.464 C138.581,162.414 137.969,161.937 136.579,161.937 C135.653,161.937 135.138,162.363 135.033,163.215 Z M138.486,165.866 C137.735648,165.849493 136.984967,165.85583 136.235,165.885 C135.34,165.964 134.543,166.625 134.611,167.568 C134.692,168.691 135.97,168.898 136.97,168.574 C137.81,168.302 138.395,167.599 138.486,167.3 L138.486,165.866 Z M168.166,160.206 C169.266,160.145 170.659,160.534 171.439,161.341 C172.301,162.233 172.917,163.343 172.917,165.175 C172.917,166.797 172.599,167.969 171.847,168.917 C170.997,169.987 169.673,170.477 168.599,170.477 C167.485,170.477 166.277,170.299 165.262,169.342 C164.431,168.559 163.662,167.216 163.739,165.342 C163.823,163.271 164.476,162.09 165.262,161.341 C166.055,160.584 166.987,160.271 168.166,160.206 Z M168.385,161.973 C167.382,161.973 166.023,162.422 166.023,165.235 C166.023,168.048 167.119,168.729 168.385,168.729 C169.65,168.729 170.709,167.609 170.618,165.1 C170.528,162.591 169.388,161.973 168.385,161.973 Z M153.522,155.949 L155.64,155.949 C155.68,159.421 155.699,161.313 155.699,161.624 C156.215,160.822 157.713,159.73 159.31,160.224 C161.845,161.009 161.73,162.663 161.845,163.773 C161.922,164.513 161.922,166.673 161.845,170.256 L159.648,170.256 C159.708,167.298 159.708,165.197 159.648,163.953 C159.728,161.797 157.048,161.148 155.64,163.075 L155.699,170.255 L153.522,170.255 L153.522,155.949 Z" id="Shape" fill="#FFFFFF" fill-rule="nonzero"></path>
        </g>
    </g>
</svg>

<svg width="299" height="197" xmlns="http://www.w3.org/2000/svg"><g fill="none" fill-rule="evenodd"><path fill="#F1F2F2" d="M0 0h299v197H0z"/><path d="M1.987 1.98v193.04h295.026V1.98H1.987zM299 0v197H0V0h299z" fill="#C2C2C2" fill-rule="nonzero"/><path d="M4.887 55.446v-1.207h289.656v1.207H4.887zm0 40.534v-1.207h289.656v1.207H4.887zm0 40.534v-1.207h289.656v1.207H4.887zm0 40.496v-1.207h289.656v1.207H4.887zm34.38-142.416h1.206v159.67h-1.206V34.594zm36.664 0h1.207v159.67h-1.207V34.594zm36.628 0h1.207v159.67h-1.207V34.594zm36.665 0h1.207v159.67h-1.207V34.594zm36.627 0h1.207v159.67h-1.207V34.594zm36.628 0h1.207v159.67h-1.207V34.594zM4.887 116.228v-1.207h289.656v1.207H4.887z" fill="#DFDEDE" fill-rule="nonzero"/><path fill="#2A3052" fill-rule="nonzero" d="M4.887 76.731v-1.206h289.656v1.206z"/><path fill="#DFDEDE" fill-rule="nonzero" d="M4.887 157.762v-1.207h289.656v1.207z"/><path fill="#2A3052" fill-rule="nonzero" d="M259.144 35.594h1.207v159.67h-1.207z"/><path fill="#C2C2C2" fill-rule="nonzero" d="M2.794 35.606V33.19h293.842v2.415z"/><path d="M41.087 138.25a1.81 1.81 0 0 1-2.434-2.68l36.665-33.287a1.81 1.81 0 0 1 2.492.056l24.705 24.516 30.16-33.337a1.81 1.81 0 0 1 2.572-.115l44.09 40.784 42.273-59.112a1.81 1.81 0 0 1 2.945 2.106l-43.467 60.782a1.81 1.81 0 0 1-2.702.276l-44.254-40.934-30.204 33.385a1.81 1.81 0 0 1-2.618.07l-24.83-24.64-35.393 32.13z" fill="#2A3052" fill-rule="nonzero"/><path d="M187.987 147.445h-34.945l-5.382-8.181-5.382 8.181h-34.946c-2.616 0-4.71 2.13-4.71 4.782v24.694c0 2.653 2.131 4.782 4.71 4.782h80.692c2.617 0 4.71-2.13 4.71-4.782v-24.694c0-2.652-2.13-4.782-4.747-4.782z" fill="#E88024"/><ellipse cx="9.045" cy="8.618" rx="8.11" ry="8.443" opacity=".6" transform="translate(214.037 67.51)" fill="#FFF"/><path d="M223.082 85.778c-5.157 0-9.317-4.331-9.317-9.65s4.16-9.65 9.317-9.65 9.318 4.331 9.318 9.65-4.16 9.65-9.318 9.65zm0-2.414c3.802 0 6.904-3.23 6.904-7.236 0-4.007-3.102-7.236-6.904-7.236-3.801 0-6.903 3.229-6.903 7.236s3.102 7.236 6.903 7.236z" fill="#E88024" fill-rule="nonzero"/><ellipse cx="8.97" cy="8.891" rx="8.11" ry="8.443" opacity=".6" transform="translate(30.9 128.019)" fill="#FFF"/><path d="M39.87 146.56c-5.157 0-9.317-4.33-9.317-9.65 0-5.319 4.16-9.65 9.317-9.65s9.317 4.331 9.317 9.65c0 5.32-4.16 9.65-9.317 9.65zm0-2.414c3.802 0 6.903-3.229 6.903-7.236s-3.101-7.236-6.903-7.236c-3.802 0-6.903 3.23-6.903 7.236 0 4.007 3.101 7.236 6.903 7.236z" fill="#E88024" fill-rule="nonzero"/><path d="M24.198 12.851h-3.422v10.128h-2.403V12.851H15V11h9.198v1.851zm.116 5.595c0-1.328.37-2.415 1.11-3.263.74-.847 1.766-1.27 3.077-1.27 1.317 0 2.348.422 3.094 1.266.746.845 1.119 1.934 1.119 3.267v.172c0 1.339-.372 2.429-1.115 3.27-.743.843-1.77 1.264-3.081 1.264-1.317 0-2.346-.421-3.09-1.263-.743-.842-1.114-1.932-1.114-3.27v-.173zm2.394.172c0 .812.142 1.463.428 1.954.285.491.746.737 1.382.737.62 0 1.074-.247 1.362-.74.287-.494.431-1.144.431-1.95v-.173c0-.79-.145-1.435-.436-1.934-.29-.5-.748-.749-1.374-.749-.62 0-1.073.251-1.361.753-.288.502-.432 1.145-.432 1.93v.172zm11.206 2.69c.417 0 .748-.124.995-.374s.37-.582.37-1h2.189l.016.05c.022.9-.312 1.652-1.003 2.259-.691.606-1.547.909-2.567.909-1.317 0-2.334-.421-3.053-1.263-.718-.842-1.078-1.919-1.078-3.23v-.246c0-1.306.358-2.382 1.074-3.23.716-.847 1.73-1.27 3.04-1.27 1.086 0 1.961.312 2.625.937.664.625.984 1.448.962 2.468l-.016.05h-2.189c0-.461-.122-.844-.366-1.148-.244-.304-.582-.457-1.016-.457-.62 0-1.06.249-1.32.745s-.391 1.131-.391 1.905v.246c0 .79.13 1.43.39 1.917.261.489.707.733 1.338.733v-.001zm10.218 1.67a5.053 5.053 0 0 1-.226-.64 4.464 4.464 0 0 1-.136-.692 3.293 3.293 0 0 1-.979 1.078c-.406.285-.888.428-1.448.428-.932 0-1.65-.24-2.155-.72-.505-.48-.757-1.134-.757-1.962 0-.873.336-1.549 1.007-2.029.672-.48 1.653-.72 2.942-.72h1.35v-.707c0-.428-.113-.76-.338-.996-.225-.235-.56-.353-1.004-.353-.39 0-.69.094-.9.283-.212.19-.318.449-.318.778h-2.312l-.016-.05c-.038-.75.29-1.4.983-1.945.694-.546 1.6-.819 2.72-.819 1.069 0 1.934.269 2.595.806.661.538.992 1.309.992 2.312v3.678c0 .417.031.81.094 1.177s.163.732.3 1.094h-2.394v-.001zm-2.196-1.603c.416 0 .79-.105 1.118-.313.33-.209.554-.45.675-.724v-1.259H46.38c-.51 0-.895.126-1.155.379-.26.252-.391.562-.391.93 0 .3.097.54.292.72.195.177.465.267.81.267z" fill="#000" fill-rule="nonzero"/><path d="M271.666 119.808v1.022h-4.9v3.47h4.174v1.052h-4.175v4.443h-1.44v-9.987h6.341zm1.262 2.582h1.324v7.287h-1.324v-7.287zm.018-3.31v1.315h1.349v-1.315h-1.349zm3.494 3.378h1.16c.005.232.037.538.097.92 1.151-1.367 3.486-1.614 4.287.293.783-1.213 1.557-1.535 2.819-1.326 1.596.266 1.834 2.068 1.911 2.75-.033 1.952-.012 3.669 0 4.7h-1.343v-4.7c-.04-.694-.274-1.718-1.453-1.718-1.18 0-1.708 1.081-1.708 1.718v4.7h-1.335v-4.7c0-.82-.503-1.883-1.689-1.718-1.185.165-1.284.697-1.49.976.015 1.658.015 3.472 0 5.442h-1.257v-7.337h.001zM27.93 156.249l.114 1.181a2.577 2.577 0 0 1 2.288-1.296c.839 0 1.487.229 1.944.763.458.495.687 1.258.687 2.287v4.957h-1.411v-4.919c0-.686-.153-1.181-.42-1.487-.266-.305-.686-.419-1.22-.419-.419 0-.762.114-1.067.305-.305.19-.572.458-.763.8v5.72h-1.41v-7.854l1.258-.038zm-5.14-2.64h1.433v10.594H22.79v-10.594zm12.414 2.542h1.433v7.99h-1.433v-7.99zm11.652.076h1.41v7.762h-1.41v-7.762zm.019-3.524v1.4h1.437v-1.4h-1.437zm-3.379 6.283c.502-.015.972 0 1.275 0 0-2.243-1.777-2.835-3.207-2.835-1.429 0-3.207 1.296-3.207 4.078 0 2.781 1.56 4.134 3.496 4.065 1.936-.07 2.918-1.542 2.918-2.626-.425.013-.85.013-1.275 0 0 1.024-.92 1.561-1.643 1.561-1.728 0-2.12-1.677-2.12-3.01 0-1.333.442-2.98 1.986-2.98 1.31 0 1.777 1.016 1.777 1.747zm10.003-2.849c.891-.049 2.02.26 2.65.901.699.708 1.198 1.59 1.198 3.044 0 1.288-.257 2.219-.867 2.971-.688.85-1.76 1.24-2.63 1.24-.902 0-1.88-.142-2.703-.902-.673-.622-1.296-1.688-1.234-3.176.069-1.644.598-2.582 1.234-3.177.643-.6 1.397-.85 2.352-.901zm.32 1.076c-1.022 0-2.258.666-2.258 2.735 0 2.068.763 3.298 2.133 3.298s2.27-1.391 2.131-3.298c-.139-1.908-.983-2.735-2.005-2.735h-.001zm-18.539-2.211h1.037l1.989-1.88h-1.687l-1.339 1.88z" fill="#2A3052" fill-rule="nonzero"/><path d="M35.452 59.318h1.13l-1.351 8.912h-1.096l1.317-8.912zm1.906 2.743h1.118l.893 4.812 2.272-4.812h1.119l-3.212 6.169h-.79l-1.4-6.169zm9.312-.083c1.505.234 2.34 1.66 1.774 3.833-.565 2.172-2.48 2.83-3.918 2.422-1.439-.408-1.797-2.277-1.287-3.895.51-1.618 1.928-2.593 3.432-2.36h-.001zm-.182.887c-1.127-.267-1.865.79-2.139 1.55-.274.762-.498 2.781.7 3.023 1.197.243 1.986-.647 2.32-1.777.332-1.129.247-2.528-.88-2.796h-.001zm-20.402 5.343l4.242-8.295h.984l1.66 8.295H31.82l-.383-2.158h-3.133l-1.07 2.158h-1.148zm2.713-3.06h2.455l-.666-3.657-1.789 3.658v-.001z" fill="#6D6E71" fill-rule="nonzero"/><path d="M177.61 165.885h-2.498v-8.267h2.499l-.001 8.267zm0 4.35h-2.498v-2.221h2.499l-.001 2.221zM142.888 160.394h2.017l.102 1.47c.826-1.233 1.898-1.78 3.216-1.644.762.079 2.371.329 2.85 2.495.177.794.14 2.136.126 3.96a425.24 425.24 0 0 0 0 3.678h-2.214v-6.238c0-.734-.205-1.553-.82-1.863-.845-.426-2.437-.247-3.076.827v7.274h-2.201v-9.959zm-17.77 4.661v-1.673h5.063c.057 2.917.057 4.618 0 5.102-.427 1.277-5.484 3.599-8.748.654-.973-.878-1.431-1.85-1.681-3.323-.011-1.503-.038-2.914-.028-4.248.247-1.635.795-2.564 1.236-3.091 1.605-1.92 4.163-2.332 6.412-1.555 2.25.778 2.541 2.393 2.723 3.973-.52 0-.796-.022-2.202 0 .143-.889-.666-2.608-2.777-2.513-2.11.095-3.106 1.828-3.106 3.273 0 1.444-.076.96 0 3.83.096 3.296 4.047 4.18 5.883 2.42l.067-2.807-2.842-.042zm9.915-1.84c-.679-.005-1.391-.005-2.136 0 0-1.072.767-3.015 3.835-3.015 3.069 0 3.805 2.108 3.888 2.561.083.454-.213 6.818.429 7.541l-2.28.003c-.188-.645-.282-1.12-.282-1.429-.356.434-.968 1.228-1.908 1.519-.94.291-3.074.448-3.949-1.6-.576-1.351-.208-2.87.875-3.565 1.789-1.15 4.248-.766 4.982-.766.094-2.05-.518-2.527-1.908-2.527-.926 0-1.441.426-1.546 1.278zm3.453 2.651c-.75-.017-1.501-.01-2.251.019-.895.079-1.692.74-1.624 1.683.081 1.123 1.359 1.33 2.359 1.006.84-.272 1.425-.975 1.516-1.274v-1.434zm29.68-5.66c1.1-.061 2.493.328 3.273 1.135.862.892 1.478 2.002 1.478 3.834 0 1.622-.318 2.794-1.07 3.742-.85 1.07-2.174 1.56-3.248 1.56-1.114 0-2.322-.178-3.337-1.135-.831-.783-1.6-2.126-1.523-4 .084-2.071.737-3.252 1.523-4.001.793-.757 1.725-1.07 2.904-1.135zm.219 1.767c-1.003 0-2.362.449-2.362 3.262s1.096 3.494 2.362 3.494c1.265 0 2.324-1.12 2.233-3.629-.09-2.509-1.23-3.127-2.233-3.127zm-14.863-6.024h2.118c.04 3.472.059 5.364.059 5.675.516-.802 2.014-1.894 3.611-1.4 2.535.785 2.42 2.439 2.535 3.549.077.74.077 2.9 0 6.483h-2.197c.06-2.958.06-5.059 0-6.303.08-2.156-2.6-2.805-4.008-.878l.059 7.18h-2.177v-14.306z" fill="#FFF" fill-rule="nonzero"/></g></svg>
